dist/assets/img/sofa-icon-03.svg

<svg width="123" height="49" fill="none" xmlns="http://www.w3.org/2000/svg"><path fill-rule="evenodd" clip-rule="evenodd" d="M114 49h6v-1h-6v1Zm5-31h-7V5c0-2.8-2.2-5-5-5H19c-2.8 0-5 2.2-5 5v13H7c-2.2 0-4 1.8-4 4v4H0v23h43l4-4h64v2h12V22c0-2.2-1.8-4-4-4ZM4 22c0-1.7 1.3-3 3-3h7v7H4v-4Zm38 26H1v-6h41v6Zm4-3.6s-1.7 1.7-3 2.8v-6.1l3-2.4v5.7Zm0-6.9-3 2.4V27h3v10.5Zm65 6.5H47v-6h64v-1H47V27h64v17Zm0-18H40v1h2v14H1V27h39v-1H15V5c0-2.2 1.8-4 4-4h28v20h1V1h31v20h1V1h27c2.2 0 4 1.8 4 4v21Zm11 20h-10V24h10v22Zm0-23h-10v-4h7c1.7 0 3 1.3 3 3v1ZM64 12h-1v2h-2v1h2v2h1v-2h2v-1h-2v-2Zm32 0h-1v2h-2v1h2v2h1v-2h2v-1h-2v-2Zm-64 0h-1v2h-2v1h2v2h1v-2h2v-1h-2v-2Z" fill="#383838"/></svg>

<svg width="123" height="49" viewBox="0 0 123 49" fill="none" xmlns="http://www.w3.org/2000/svg">
<path fill-rule="evenodd" clip-rule="evenodd" d="M114 49H120V48H114V49ZM119 18H112V5C112 2.2 109.8 0 107 0H19C16.2 0 14 2.2 14 5V18H7C4.8 18 3 19.8 3 22V26H0V49H43L47 45H111V47H123V22C123 19.8 121.2 18 119 18ZM4 22C4 20.3 5.3 19 7 19H14V26H4V22ZM42 48H1V42H42V48ZM46 44.4C46 44.4 44.3 46.1 43 47.2V41.1L46 38.7V44.4ZM46 37.5L43 39.9V27H46V37.5ZM111 44H47V38H111V37H47V27H111V44ZM111 26H40V27H42V41H1V27H40V26H15V5C15 2.8 16.8 1 19 1H47V21H48V1H79V21H80V1H107C109.2 1 111 2.8 111 5V26ZM122 46H112V24H122V46ZM122 23H112V19H119C120.7 19 122 20.3 122 22V23ZM64 12H63V14H61V15H63V17H64V15H66V14H64V12ZM96 12H95V14H93V15H95V17H96V15H98V14H96V12ZM32 12H31V14H29V15H31V17H32V15H34V14H32V12Z" fill="#383838"/>
</svg>
